!!!COM: Beethoven, Ludwig van
!!!CDT: 1770///-1827///
!!!OTL: Piano Sonata no. 26 in E-flat major
!!!OTP: les adieux
!!!ODT: 1809///-1810///
!!!ODE: &agrave; l'Archiduc Rodolphe
!!!OPS: 81a
!!!OMV: 3
!!!OMD: Le Retour: Vivacissimamente
**kern	**kern	**dynam
*staff2	*staff1	*staff1/2
*Ipiano	*Ipiano	*Ipiano
*>[A,B,B1,B,B2,C]	*>[A,B,B1,B,B2,C]	*>[A,B,B1,B,B2,C]
*>norep[A,B,B2,C]	*>norep[A,B,B2,C]	*>norep[A,B,B2,C]
*>A	*>A	*>A
*clefG2	*clefG2	*
*k[b-e-a-]	*k[b-e-a-]	*k[b-e-a-]
*E-:	*E-:	*E-:
*M6/8	*M6/8	*M6/8
*MM144	*MM144	*MM144
=1-	=1-	=1-
8B-' 8d' 8f' 8a-'	8aa-' 8ddd' 8fff' 8aaa-'	f
*clefF4	*	*
16BB-LL	16B-LL	.
16D	16An	.
16BB-	16B-	.
16DJJ	16dJJ	.
16DLL	16fLL	.
16F	16d	.
16D	16f	.
16F	16a-X	.
16D	16f	.
16FJJ	16dJJ	.
=2	=2	=2
16FLL	16a-LL	.
16A-	16f	.
16F	16a-	.
16A-	16b-	.
16F	16a-	.
16A-JJ	16fJJ	.
*clefG2	*	*
16B-LL	16b-LL	.
16d	16a-	.
16B-	16b-	.
16d	16dd	.
16B-	16b-	.
16dJJ	16a-JJ	.
=3	=3	=3
16dLL	16ffLL	.
16f	16dd	.
16d	16ff	.
16f	16aa-	.
16d	16ff	.
16fJJ	16ddJJ	.
16fLL	16aa-LL	.
16a-	16ff	.
16f	16aa-	.
16a-	16bb-	.
16f	16aa-	.
16a-JJ	16ffJJ	.
!!LO:LB:g=original
=4	=4	=4
*	*8va	*
16ddLL	16bb-LL	.
16ff	16aa-	.
16dd	16bb-	.
16ff	16ddd	.
16dd	16bb-	.
16ffJJ	16aa-JJ	.
16ffLL	16dddLL	.
16aa-	16bb-	.
16ff	16ddd	.
16aa-	16fff	.
16ff	16ddd	.
16aa-JJ	16bb-JJ	.
=5	=5	=5
!	!	!LO:HP:i:t=dim.
4r	16fffLL	>
.	16ddd	.
.	16fff	.
.	16aaa-	.
8ff (8aa-	16fff	.
.	16dddJJ	.
4dd 4ff)	16bb-LL	.
.	16aan	.
.	16bb-	.
.	16ddd	.
8r	16fff	.
.	16dddJJ	.
=6	=6	=6
4r	16fffLL	.
.	16ddd	.
.	16fff	.
.	16aaa-X	.
8ff (8aa-	16fff	.
.	16dddJJ	.
4dd 4ff)	16bb-LL	.
.	16aan	.
.	16bb-	.
.	16ddd	.
8r	16fff	.
.	16dddJJ	.
*	*X8va	*
=7	=7	=7
4r	16ffLL	.
.	16dd	.
.	16ff	.
.	16aa-X	.
(8f 8a-	16ff	.
.	16ddJJ	.
4d) 4f	16b-LL	.
.	16an	.
.	16b-	.
.	16dd	.
8r	16ff	.
.	16ddJJ	.
!!LO:LB:g=original
=8	=8	=8
4r	16ffLL	.
.	16dd	.
.	16ff	.
.	16aa-	.
(8f 8a-	16ff	.
.	16ddJJ	.
4d) 4f	16b-LL	.
.	16an	.
.	16b-	.
.	16dd	.
8r	16ff	.
.	16ddJJ	.
*clefF4	*	*
=9	=9	=9
8BB-' 8D' 8F' 8B-'	8a-X' 8dd' 8ff' 8aa-X'	f
8BB-'L	(16B-LL	.
.	16An)	.
8BB-'J	(16B-	.
.	16AJJ)	.
8D'L	(16cLL	.
.	16B-)	.
8F'	(16e-	.
.	16d)	.
8B-'J	(16g	.
.	16fJJ)	.
*clefG2	*	*
=10	=10	=10
8d'L	(16b-LL	.
.	16an)	.
8f'	(16cc	.
.	16b-)	.
8a-' 8b-'J	(16ee-	.
.	16ddJJ)	.
8a- 8b-L	(16ggLL	.
.	16ff)	.
8a- 8b-	(16bb-	.
.	16aan)	.
8a- 8b-J	(16ccc	.
.	16bb-JJ)	.
=11!|:	=11!|:	=11!|:
*>B	*>B	*>B
4e- 4g 4b-	(8bb-L	p
.	8gg	.
8r	8ee-J	.
4B- 4f 4a- 4b-	8ddL	.
.	8ff	.
8r	8bb-J)	.
!!LO:LB:g=original
=12	=12	=12
4e- 4g 4b-	(8bb-L	.
.	8gg	.
8r	8ee-J	.
4r	8ee-L	.
.	8gg	.
8en 8g 8b- 8cc	8cccJ)	.
=13	=13	=13
4f 4a- 4cc	(8cccL	<
.	8aa-	.
8r	8ffJ	.
4c 4g 4b- 4cc	8eenL	.
.	8gg	.
8r	8cccJ)	[[
=14	=14	=14
4f 4a- 4cc	(8cccL	>
.	8aa-	.
8r	8ffJ	.
4r	8ddL	.
.	8ff	.
8d 8f 8a- 8b-	8bb-J)	]]
=15	=15	=15
4e-X 4g 4b-	(8bb-L	.
.	8gg	.
8r	8ee-XJ	.
4A- 4c 4f	8ccL	.
.	8ff	.
8r	8aa-J)	.
=16	=16	=16
4B- 4e- 4g	(8b-L	.
.	8ee-	.
8r	8ggJ	.
4B- 4f	8a-L	.
.	8dd	.
*clefF4	*	*
8B-	8a- 8ffJ)	.
=17	=17	=17
(8B-L	8g 8ee-	.
8G	8r	<
8E-J	8gg	.
8DL	16aa-LL	.
.	16gg	.
8F	16aa-	.
.	16ff	.
8B-J)	16bb-	.
.	16aa-JJ	.
!!LO:LB:g=original
=18	=18	=18
(8B-L	8ggL	.
8G	8bbb-J	.
8E-J	8r	.
8E-L	4r	.
8G	.	.
8En 8cJ)	8g	.
=19	=19	=19
8F (8cL	4r	.
8A-	.	.
8FJ	8a-	.
8EnL	16b-LL	.
.	16a-	.
8G	16b-	.
.	16g	.
8cJ)	16cc	.
.	16b-JJ	.
=20	=20	=20
(8cL	8a-L	.
8A-	8cccJ	.
8FJ	8r	.
8DL	4r	.
8F	.	.
8D 8B-J)	8ff	.
=21	=21	=21
8E-X (8B-L	4r	.
8G	.	.
8E-J	8gg	.
8AA- 8CL	16aa-LL	.
.	16gg	.
8F	16aa-	.
.	16ffJ	.
8A-J)	8aaa-J	.
=22	=22	=22
(8BB-L	4r	.
8E-	.	.
8GJ	8ee-	.
8BB-L<	16ffLL	.
.	16ee-	.
8D	16ff	.
.	16ddJ	.
8BB- 8B-J)	8fffJ	.
!!LO:LB:g=original
=23	=23	=23
!	!	!LO:DY:rj
(8BB-L	16gLL	f
.	16gg	.
8GG	16g	.
.	16gg	.
8EE-J	16b-	.
.	16bb-JJ	.
8DDL	16b-LL	.
.	16bb-	.
8FF	16b-	.
.	16bb-	.
8BB-J)	16a-	.
.	16aa-JJ	.
=24	=24	=24
(8BB-L	16gLL	.
.	16gg	.
8GG	16g	.
.	16gg	.
8EE-J	16b-	.
.	16bb-JJ	.
8EE-L	16b-LL	.
.	16bb-	.
8GG	16b-	.
.	16bb-	.
8EEn) 8CJ	16g	sf
.	16ggJJ	.
=25	=25	=25
(8FF 8CL	16a-LL	.
.	16aa-	.
8AA-	16a-	.
.	16aa-	.
8FFJ	16cc	.
.	16cccJJ	.
8EEnL	16ccLL	.
.	16ccc	.
8GG	16cc	.
.	16ccc	.
8CJ)	16b-	.
.	16bb-JJ	.
=26	=26	=26
(8CL	16a-LL	.
.	16aa-	.
8AA-	16a-	.
.	16aa-	.
8FFJ	16cc	.
.	16cccJJ	.
8DDL	16ccLL	.
.	16ccc	.
8FF	16b-	.
.	16bb-	.
8DD) 8BB-J	16a-	sf
.	16aa-JJ	.
!!LO:LB:g=original
=27	=27	=27
*^	*	*
8EE- 8BB-L	4.ryy	16gLL	sf
.	.	16gg	.
8GG	.	16b-	.
.	.	16bb-	.
8EE-J	.	16ee-	.
.	.	16eee-JJ	.
8CCL	4AAA-	16ee-LL	sf
.	.	16eee-	.
8FF	.	16cc	.
.	.	16ccc	.
8AA-J	8rCC	16a-	.
.	.	16aa-JJ	.
*v	*v	*	*
=28	=28	=28
8BBB-L	16ee-LL	sf
.	16eee-	.
8EE-	16b-	.
.	16bb-	.
8GGJ	16g	.
.	16ggJJ	.
8BBB-L	16b-LL	sf
.	16bb-	.
8FF	16a-	.
.	16aa-	.
8BB-J	16f	.
.	16ffJJ	.
=29	=29	=29
*ped	*	*
8EE-	16GLL	ff
.	16e-	.
8E- 8GL	16B-	.
.	16g	.
8E- 8G 8B-J	16e-	.
.	16b-JJ	.
8E- 8G 8B- 8e-L	16gLL	.
.	16ee-	.
8E- 8G 8B- 8e-	16b-	.
.	16gg	.
8E- 8G 8B- 8e-J	16ee-	.
.	16bb-JJ	.
=30	=30	=30
*	*8va	*
8E- 8G 8B- 8e-L	16ggLL	.
.	16eee-	.
8E- 8G 8B- 8e-	16bb-	.
.	16ggg	.
*Xped	*	*
8E- 8G 8B- 8e-J	16eee-	.
.	16bbb-JJ	.
8E- 8F 8A- 8B- 8dL	16aaanLL	.
.	16bbb-	.
8E- 8F 8A- 8B- 8d	16aaa	.
.	16bbb-	.
8E- 8F 8A- 8B- 8dJ	16aaa	.
.	16bbb-JJ	.
!!LO:LB:g=original
=31	=31	=31
8E- 8G 8B- 8e-L	16ccccLL	.
.	16bbb-	.
8E- 8G 8B- 8e-	16aaa-X	.
.	16ggg	.
8E- 8G 8B- 8e-J	16fff	.
.	16eee-JJ	.
*	*X8va	*
8E- 8G 8B- 8e-L	16dddLL	.
.	16ccc	.
8E- 8G 8B- 8e-	16bb-	.
.	16aa-	.
8E- 8G 8B- 8e-J	16gg	.
.	16ffJJ	.
=32	=32	=32
8E- 8G 8B- 8e-L	16ee-LL	.
.	16dd	.
8E- 8G 8B- 8e-	16cc	.
.	16b-	.
8E- 8G 8B- 8e-J	16a-	.
.	16gJJ	.
8E- 8F 8A- 8B-L	16fLL	.
.	16e-	.
8E- 8F 8A- 8B-	16d	.
.	16f	.
8E- 8F 8A- 8B-J	16a-	.
.	16dJJ	.
=33	=33	=33
*ped	*	*
8EE-	16GLL	ff
.	16e-	.
8E- 8GL	16B-	.
.	16g	.
8E- 8G 8B-J	16e-	.
.	16b-JJ	.
8E- 8G 8B- 8e-L	16gLL	.
.	16ee-	.
8E- 8G 8B- 8e-	16b-	.
.	16gg	.
8E- 8G 8B- 8e-J	16ee-	.
.	16bb-JJ	.
!!LO:LB:g=original
=34	=34	=34
*	*8va	*
8E- 8G 8B- 8e-L	16ggLL	.
.	16eee-	.
8E- 8G 8B- 8e-	16bb-	.
.	16ggg	.
8E- 8G 8B- 8e-J	16eee-	.
*Xped	*	*
.	16bbb-JJ	.
8E- 8F 8A- 8B- 8dL	16aaanLL	.
.	16bbb-	.
8E- 8F 8A- 8B- 8d	16aaa	.
.	16bbb-	.
8E- 8F 8A- 8B- 8dJ	16aaa	.
.	16bbb-JJ	.
=35	=35	=35
8E- 8G 8B- 8e-L	16ccccLL	.
.	16bbb-	.
8E- 8G 8B- 8e-	16aaa-X	.
.	16ggg	.
8E- 8G 8B- 8e-J	16fff	.
.	16eee-JJ	.
*	*X8va	*
8E- 8G 8B- 8e-L	16dddLL	.
.	16ccc	.
8E- 8G 8B- 8e-	16bb-	.
.	16aa-	.
8E- 8G 8B- 8e-J	16gg	.
.	16ffJJ	.
=36	=36	=36
8E- 8G 8B-L	24ee-LL	.
.	24dd	.
.	24ccJJ	.
8E- 8G 8B-	24b-LL	.
.	24a-	.
.	24gJJ	.
8E- 8G 8B-J	24fLL	.
.	24e-	.
.	24dJJ	.
8E- 8FL	16cLL	.
.	16B-	.
8FF 8E- 8F	16An	.
.	16c	.
8FF 8E- 8FJ	16e-	.
.	16AJJ	.
!!LO:LB:g=original
=37	=37	=37
*ped	*	*
4BBB-' 4BB-'	4B-'	ff
8r	8r	.
4B-'	4b-'	sf
8r	8r	.
=38	=38	=38
4d-'	4dd-'	sf
8r	8r	.
4g-'	4gg-'	sf
8r	8r	.
=39	=39	=39
4d-'	4dd-'	sf
8r	8r	.
4B-'	4b-'	sf
8r	8r	.
=40	=40	=40
4G-'	4g-'	sf
*Xped	*	*
8r	8r	.
4D-'	4d-'	sf
8r	8r	.
=41	=41	=41
*ped	*	*
4AAAn 4AAn	4An'	ff
8r	8r	.
4An'	4an'	.
8r	8r	.
=42	=42	=42
4c'	4cc'	.
8r	8r	.
4f'	4ff'	.
8r	8r	.
=43	=43	=43
4c'	4cc'y	.
8r	8r	.
4An'	4an'y	.
8r	8r	.
=44	=44	=44
4F'	4f'y	.
8r	8r	.
4C'	4c'y	.
*Xped	*	*
8r	8r	.
*clefG2	*	*
!!LO:LB:g=original
=45	=45	=45
8B- 8d- 8g-L	8dd-	p
8B- 8d- 8g-	8r	.
.	(8ccc-q	.
8B- 8d- 8g-J	16bb-LL)	.
.	16aanJJ	.
8B- 8d- 8g-L	8bb-	.
8B- 8d- 8g-	8r	.
.	(8dddq	.
8B- 8d- 8g-J	(16ddd-LL)	.
.	16cccJJ)	.
=46	=46	=46
8B- 8d- 8g-L	8ddd-	.
8B- 8d- 8g-	8r	.
*	*8va	*
.	(8aaa-q	.
8B- 8d- 8g-J	(16ggg-LL)	.
.	16fffJJ	.
8B- 8d- 8g-L	8ggg-')	.
8B- 8d- 8g-	8r	.
.	(8eee-q	.
8B- 8d- 8g-J	()16ddd-LL	.
.	16cccJJ	.
=47	=47	=47
8B- 8d- 8g-L	8ddd-')	.
8B- 8d- 8g-	8r	.
.	(8ccc-q	.
8B- 8d- 8g-J	(16bb-LL<)	.
.	16aanJJ	.
8B- 8d- 8g-L	8bb-')	.
*	*X8va	*
8B- 8d- 8g-	8r	.
.	(8aa-q	.
8B- 8d- 8g-J	16gg-LL)	.
.	16ffJJ	.
=48	=48	=48
8B- 8d- 8g-L	8gg-	.
8B- 8d- 8g-	8r	.
.	(8ee-q	.
8B- 8d- 8g-J	(16dd-LL)	.
.	16ccJJ	.
8B- 8d- 8g-L	4dd-)	.
8B- 8d- 8g-	.	.
8B- 8d- 8enJ	8r	.
!!LO:LB:g=original
=49	=49	=49
8An 8c 8fL	8cc	.
8A 8c 8f	8r	.
.	(8bb-q	.
8A 8c 8fJ	(16aanLL)	.
.	16ggnJJ	.
8A 8c 8fL	8aa)	.
8A 8c 8f	8r	.
.	(8ddd-q	.
8A 8c 8fJ	(16cccLL)	.
.	16bbnJJ	.
=50	=50	=50
8An 8c 8fL	8ccc)	.
8A 8c 8f	8r	.
*	*8va	*
.	(8ggg-q	.
8A 8c 8fJ	(16fffLL)	.
.	16eeenJJ	.
8A 8c 8fL	8fff)	.
8A 8c 8f	8r	.
.	(8ddd-q	.
8A 8c 8fJ	16cccLL)	.
.	16bbnJJ	.
*	*X8va	*
=51	=51	=51
8An 8c 8fL	8ccc	.
8A 8c 8f	8r	.
.	(8bb-Xq	.
8A 8c 8fJ	(16aanLL)	.
.	16ggnJJ	.
8A 8c 8fL	8aa)	.
8A 8c 8f	8r	.
.	(8gg-q	.
8A 8c 8fJ	(16ffLL)	.
.	16eenJJ	.
=52	=52	=52
8An 8c 8fL	8ff)	.
8A 8c 8f	8r	.
.	(8dd-q	.
8A 8c 8fJ	(16ccLL)	.
.	16bnJJ	.
8A 8c 8f	8cc)	.
*clefF4	*	*
8FL	8r	.
8E-J	8cc#	.
!!LO:LB:g=original
=53	=53	=53
*^	*^	*
!	!	!	!	!LO:HP:i:t=legato e cresc.
(<4D	2.BB-	4.ddn	16fLL	.
.	.	.	16g	.
.	.	.	16f	.
.	.	.	16g	.
8G	.	.	16f	.
.	.	.	16gJJ	.
4F	.	4.b-	16fLL	.
.	.	.	16g	.
.	.	.	16f	.
.	.	.	16g	.
8D)	.	.	16f	.
.	.	.	16gJJ	.
=54	=54	=54	=54	=54
(<4C	2.FF	4.an	16fLL	.
.	.	.	16g	.
.	.	.	16f	.
.	.	.	16g	.
8G	.	.	16f	.
.	.	.	16gJJ	.
4F	.	4.ee-	16fLL	.
.	.	.	16g	.
.	.	.	16f	.
.	.	.	16g	.
8C)	.	.	16f	.
.	.	.	16gJJ	.
=55	=55	=55	=55	=55
(<4D	2.BB-	4.dd	16fLL	>
.	.	.	16g	.
.	.	.	16f	.
.	.	.	16g	.
8G	.	.	16f	.
.	.	.	16gJJ	.
4F	.	4.b-	16fLL	.
.	.	.	16g	.
.	.	.	16f	.
.	.	.	16g	.
8D)	.	.	16f	.
.	.	.	16gJJ	.
=56	=56	=56	=56	=56
(<4C	2.FF	4.an	16fLL	.
.	.	.	16g	.
.	.	.	16f	.
.	.	.	16g	.
8G	.	.	16f	.
.	.	.	16gJJ	.
4F	.	4.ee-	16fLL	.
.	.	.	16g	.
.	.	.	16f	.
.	.	.	16g	.
8C)	.	.	16f	.
.	.	.	16gJJ	.
*	*	*v	*v	*
!!LO:LB:g=original
=57	=57	=57	=57
8D	8BB-	16ddLL	p
.	.	16ffJJ	.
4ryy	8D 8F 8B-L	24ggLL	.
.	.	24aan	.
.	.	24bb-JJ	.
*	*	*8va	*
.	8D 8F 8B-J	24cccLL	.
.	.	24ddd	.
.	.	24eee-JJ	.
4.ryy	8D 8F 8B-L	16fffLL	.
.	.	16eee-	.
.	8D 8F 8B-	16ddd	.
.	.	16ccc	.
.	8D 8F 8B-J	16bb-	.
.	.	16aanJJ	.
*v	*v	*	*
=58	=58	=58
8r	16ggLL<	.
.	16aan	.
8E- 8G 8B-L	16bb-	.
.	16cccJJ	.
8E- 8G 8B-J	24dddLL	.
.	24eee-	.
.	24fffJJ	.
8E- 8G 8B-L	16gggLL	.
.	16fffJJ	.
8E- 8G 8B-	24eee-LL	.
.	24ddd	.
.	24cccJJ	.
8E- 8G 8cJ	24bb-LL	.
.	24aa	.
.	24ggJJ	.
=59	=59	=59
8r	16ffLL	.
.	16ddd	.
8F 8B- 8dL	16bb-	.
.	16fff	.
8F 8B- 8dJ	16ddd	.
.	16bbb-JJ	.
8F 8B- 8dL	24fffLL	.
.	24dddd	.
.	24bbb-JJ	.
8F 8B- 8d	24ffffLL	.
.	24dddd	.
.	24bbb-JJ	.
8F 8B- 8dJ	24fffLL	.
.	24ddd	.
.	24bb-JJ	.
*	*X8va	*
!!LO:LB:g=original
=60	=60	=60
8F 8B- 8dL	4ff	.
8F 8B- 8d	.	.
8F 8B- 8dJ	8r	.
8F 8An 8e-L	4.cccTT	.
8F 8A 8e-	.	.
8F 8A 8e-J	.	.
*clefG2	*	*
=61	=61	=61
*^	*^	*
!	!	!	!	!LO:HP:i:t=legato e cresc.
4d	2.B-	4.ddd	16ffLL	<
.	.	.	16gg	.
.	.	.	16ff	.
.	.	.	16gg	.
8g	.	.	16ff	.
.	.	.	16ggJJ	.
4f	.	4.bb-	16ffLL	.
.	.	.	16gg	.
.	.	.	16ff	.
.	.	.	16gg	.
8d	.	.	16ff	.
.	.	.	16ggJJ	.
=62	=62	=62	=62	=62
4c	2.F	4.aan	16ffLL	.
.	.	.	16gg	.
.	.	.	16ff	.
.	.	.	16gg	.
8g	.	.	16ff	.
.	.	.	16ggJJ	.
4f	.	4.eee-	16ffLL	.
.	.	.	16gg	.
.	.	.	16ff	.
.	.	.	16gg	.
8c	.	.	16ff	.
.	.	.	16ggJJ	.
=63	=63	=63	=63	=63
4d	2.B-	4.ddd	16ffLL	>
.	.	.	16gg	.
.	.	.	16ff	.
.	.	.	16gg	.
8g	.	.	16ff	.
.	.	.	16ggJJ	.
4f	.	4.bb-	16ffLL	.
.	.	.	16gg	.
.	.	.	16ff	.
.	.	.	16gg	.
8d	.	.	16ff	.
.	.	.	16ggJJ	.
!!LO:LB:g=original
=64	=64	=64	=64	=64
4c	2.F	4.aan	16ffLL	.
.	.	.	16gg	.
.	.	.	16ff	.
.	.	.	16gg	.
8g	.	.	16ff	.
.	.	.	16ggJJ	.
4f	.	4.eee-	16ffLL	.
.	.	.	16gg	.
.	.	.	16ff	.
.	.	.	16gg	.
8c	.	.	16ff	.
.	.	.	16ggJJ	p
*v	*v	*	*	*
*	*v	*v	*
=65	=65	=65
16d 16fLL	8r	.
16g	.	.
*	*8va	*
16an	8bb- 8dddL	.
16b-JJ	.	.
24ccLL	8bb- 8dddJ	.
24dd	.	.
24ee-JJ	.	.
16ffLL	8bb- 8dddL	.
16ee-	.	.
16dd	8bb- 8ddd	.
16cc	.	.
16b-	8bb- 8dddJ	.
16aJJ	.	.
=66	=66	=66
16e- 16gLL	8r	.
16an	.	.
16b-	8bb- 8cccL	.
16ccJJ	.	.
24ddLL	8bb- 8cccJ	.
24ee-	.	.
24ffJJ	.	.
16ggLL	8bb- 8cccL	.
16ffJJ	.	.
24ee-LL	8bb- 8ccc	.
24dd	.	.
24ccJJ	.	.
24b-LL	8bb- 8cccJ	.
24a	.	.
24gJJ	.	.
*clefF4	*	*
!!LO:LB:g=original
=67	=67	=67
16fLL	8r	.
16F	.	.
16B-	8bb- 8dddL	.
16dJJ	.	.
*clefG2	*	*
16fLL	8bb- 8dddJ	.
16b-JJ	.	.
16ddLL	8bb- 8dddL	.
16b-	.	.
16ff	8bb- 8dddJ	.
16dd	.	.
16b-	8bb- 8ddd 8fff	.
16ddJJ	.	.
=68	=68	=68
*^	*	*
2.ccTT	8f	8aan 8eee- 8fffL	.
.	8r	8aa 8eee- 8fff	.
.	8r	8aa 8eee- 8fffJ	.
.	4r	8aa 8eee- 8fffL	.
.	.	8aa 8eee- 8fff	.
.	8r	8aa 8eee- 8fffJ	.
*v	*v	*	*
=69	=69	=69
16fLL	4r	.
16bn	.	.
16cc	.	.
16dd	.	.
16cc	[8aa-X [8aaa-X	<
16bJJ	.	.
16e-LL	4aa-] (4aaa-]	.
16cc	.	.
16dd	.	.
16ee-	.	.
16dd	8gg 8ggg)	.
16ccJJ	.	.
=70	=70	=70
16e-LL	4r	.
16an	.	.
16b-X	.	.
16cc	.	.
16b-	[8gg- [8ggg-	.
16aJJ	.	.
16dLL	4gg-] (4ggg-]	.
16b-	.	.
16cc	.	.
16dd	.	.
16cc	8ff 8fff)	.
*	*X8va	*
16b-JJ	.	.
*clefF4	*	*
!!LO:LB:g=original
=71	=71	=71
16FLL	4r	.
16Bn	.	.
16c	.	.
16d	.	.
16c	[8a-X [8aa-X	.
16BJJ	.	.
16E-LL	4a-] (4aa-]	.
16c	.	.
16d	.	.
16e-	.	.
16d	8gn 8ggn)	.
16cJJ	.	.
=72	=72	=72
16E-LL	4r	.
16An	.	.
16B-X	.	.
16c	.	.
16B-	[8g- [8gg-	.
16AJJ	.	.
16DLL	4g-] (4gg-]	.
16B-	.	.
16c	.	.
16d	.	.
16c	8f 8ff)	.
16B-JJ	.	.
=73	=73	=73
16DLL	8r	.
16F	.	.
16B-	8f' 8b-' 8ff'L	.
16d	.	.
16B-	8f' 8b-' 8ff'J	.
16FJJ	.	.
16GGLL<	8r	.
16BB-	.	.
16D	8gn' 8b-' 8ee-'L	.
16G	.	.
16D	8g' 8b-' 8dd'J	.
16BB-JJ	.	.
=74	=74	=74
16EE-LL	8r	.
16GG	.	.
16C	8e-' 8g' 8dd'L	.
16E-	.	.
16C	8e-' 8g' 8cc'J	.
16GGJJ	.	.
16FFLL	8r	.
16C	.	.
16E-	8c' 8e-' 8b-'L	.
16F	.	.
16E-	8c' 8e-' 8an'J	.
16CJJ	.	.
!!LO:LB:g=original
=75	=75	=75
16DDLL	8r	.
16FF	.	.
16BB-	8B-' 8f' 8b-'L	.
16D	.	.
16BB-	8B-' 8d' 8f'J	.
16FFJJ	.	.
*	*clefF4	*
16GGGLL	8r	.
16BBB-	.	.
16DD	8G' 8B-' 8e-'L	.
16GG	.	.
16DD	8G' 8B-' 8d'J	.
16BBB-JJ	.	.
=76	=76	=76
16EE-LL	8r	.
16GG	.	.
16C	8E-' 8G' 8d'L	.
16GGJ	.	.
8EE-J	8E-' 8G' 8c'J	.
16FFFLL	8r	.
16CC	.	.
16EE-	8C' 8E-' 8B-'L	.
16FF	.	.
16FFF	8C' 8E-' 8An'J	.
16FFJJ	.	.
=77	=77	=77
8BBB-	16BB-LL<	ff
.	16C	.
8BB-L	16D	.
.	16E-JJ	.
8BB- 8DJ	24FLL	.
.	24G	.
.	24AnJJ	.
*	*clefG2	*
4BB- 4D 4F	24B-LL	.
.	24c	.
.	24dJJ	.
.	24e-LL	.
.	24f	.
.	24gJJ	.
8FF 8C 8F	16anLL	.
.	16AnJJ	.
!!LO:LB:g=original
=78	=78	=78
8BB- 8D 8FL>	16B-LL	.
.	16c	.
8BB- 8D 8F	16d	.
.	16e-JJ	.
8BB- 8D 8FJ	24fLL	.
.	24g	.
.	24anJJ	.
4BB-/ 4D/ 4F/	24b-LL	sf
.	24cc	.
.	24ddJJ	.
.	24ee-LL	.
.	24ff	.
.	24ggJJ	.
8FF 8C 8F	16aanLL	.
.	16anJJ	.
=79	=79	=79
8BB- 8D 8FL>	16b-LL	.
.	16cc	.
8BB- 8D 8F	16dd	.
.	16ee-JJ	.
8BB- 8D 8FJ	24ffLL	.
.	24gg	.
.	24aanJJ	.
*	*8va	*
4BB-/ 4D/ 4F/	24bb-LL	sf
.	24ccc	.
.	24dddJJ	.
.	24eee-LL	.
.	24fff	.
.	24gggJJ	.
8FF 8C 8F	16aaanLL	.
.	16aanJJ	.
=80	=80	=80
4BB- 4D 4F 4B-	4bb- 4bbb-	.
*	*X8va	*
8r	8r	.
4BB- 4D 4F 4B-	4dd 4ff 4bb-	.
8r	8r	.
=81	=81	=81
*>B1	*>B1	*>B1
4BB- 4D 4F 4B-	4d 4f 4b-	.
8r	8r	.
4r	4r	.
8r	8bb-	.
!!LO:LB:g=original
=82:|!	=82:|!	=82:|!
*>B2	*>B2	*>B2
4BB- 4D 4F 4B-	4d 4f 4b-	.
8r	8r	.
4r	4r	.
8r	8b-	p
*clefG2	*	*
=83	=83	=83
*>C	*>C	*>C
8r	4b-	.
8g-'L	.	.
8e-'J	8r	.
*clefF4	*clefF4	*
8r	4B-	.
8G-'L	.	.
8E-'J	8r	.
=84	=84	=84
8r	4BB-	.
8GG-'L	.	.
8EE-'J	8r	.
4r	4r	.
*clefG2	*clefG2	*
8r	8b- (8bb-	.
=85	=85	=85
8r	4.b- 4.bb-	.
8e- 8g-L	.	.
8e- 8g-J	.	.
8e- 8g-L	4.cc- 4.ccc-	.
8e- 8g-	.	.
8e- 8g-J	.	.
=86	=86	=86
8e- 8g- 8a-L	4.ccn 4.cccn	.
8e- 8g- 8a-	.	.
8e- 8g- 8a-J	.	.
8d- 8f 8a-L	4dd- 4ddd-)	.
8d- 8f 8a-	.	.
8d- 8f 8a-J	8dd-	.
!!LO:LB:g=original
=87	=87	=87
8r	4dd-	.
8b-'L	.	.
8g-'J	8r	.
8r	4d-	.
*clefF4	*	*
8B-'L	.	.
8G-'J	8r	.
*	*clefF4	*
=88	=88	=88
8r	4D-	.
8BB-'L	.	.
8GG-'J	8r	.
4r	4r	.
*clefG2	*clefG2	*
8r	8cc# (8ccc#	.
=89	=89	=89
8r	4.cc# 4.ccc#	.
8f# 8a#L	.	.
8f# 8a#J	.	.
8f# 8bnL	[4.dd# [4.ddd#	.
8f# 8b	.	.
8f# 8bJ	.	.
=90	=90	=90
8f# 8b#L	4.dd#] 4.ddd#]	.
8f# 8b#	.	.
8f# 8b#J	.	.
8f# 8cc#L	[4.een [4.eeen	.
8f# 8cc#	.	.
8f# 8cc#J	.	.
=91	=91	=91
8f# 8cc#L	4.ee] 4.eee]	.
8f# 8cc#	.	.
8f# 8cc#J	.	.
8f# 8dd#L	4.ff# 4.fff#	.
8f# 8dd#	.	.
8f# 8dd#J	.	.
!!LO:LB:g=original
=92	=92	=92
8f# 8eenL>	4.gg 4.ggg)	.
8f# 8ee	.	.
8f# 8eeJ	.	.
8f# 8eeL>	[4.gg# [4.ggg#	.
8f# 8ee	.	.
8f# 8eeJ	.	.
=93	=93	=93
8f# 8eenL>	4.gg#] (4.ggg#]	.
8f# 8ee	.	.
8f# 8eeJ	.	.
8f# 8dd#L	4.ff# 4.fff#	.
8f# 8dd#	.	.
8f# 8dd#J	.	.
=94	=94	=94
8f# 8cc#L	4.een 4.eeen	.
8f# 8cc#	.	.
8f# 8cc#J	.	.
8en 8f# 8a#L	4.cc# 4.ccc#)	.
8e 8f# 8a#	.	.
8e 8f# 8a#J	.	.
=95	=95	=95
*^	*^	*
16f#LL	4.d#	2.ddd#	(>4dd#	<
16g#	.	.	.	.
16f#	.	.	.	.
16g#	.	.	.	.
16f#	.	.	8gg#	.
16g#JJ	.	.	.	.
16f#LL	4.Bn	.	4ff#	.
16g#	.	.	.	.
16f#	.	.	.	.
16g#	.	.	.	.
16f#	.	.	8dd#)	.
16g#JJ	.	.	.	[[
!!LO:LB:g=original
=96	=96	=96	=96	=96
16f#LL	4.A#	2.ccc#	(>4cc#	>
16g#	.	.	.	.
16f#	.	.	.	.
16g#	.	.	.	.
16f#	.	.	8gg#	.
16g#JJ	.	.	.	.
16f#LL	4.en	.	4ff#	.
16g#	.	.	.	.
16f#	.	.	.	.
16g#	.	.	.	.
16f#	.	.	8cc#)	.
16g#JJ	.	.	.	]
=97	=97	=97	=97	=97
(4d#	2.Bn	4.ddd#	16ff#LL	.
.	.	.	16gg#	.
.	.	.	16ff#	.
.	.	.	16gg#	.
8g#	.	.	16ff#	.
.	.	.	16gg#JJ	.
4f#	.	4.bbn	16ff#LL	.
.	.	.	16gg#	.
.	.	.	16ff#	.
.	.	.	16gg#	.
8d#)	.	.	16ff#	.
.	.	.	16gg#JJ	.
*v	*v	*	*	*
*clefF4	*	*	*
=98	=98	=98	=98
*^	*	*	*
(4c#	4.F#	4.aa#	16ff#LL	.
.	.	.	16gg#	.
.	.	.	16ff#	.
.	.	.	16gg#	.
8g#	.	.	16ff#	.
.	.	.	16gg#JJ	.
4f#	4.En	4.fff#	16ff#LL	.
.	.	.	16gg#	.
.	.	.	16ff#	.
.	.	.	16gg#	.
8c#)	.	.	16ff#	.
.	.	.	16gg#JJ	.
*v	*v	*	*	*
*	*v	*v	*
=99	=99	=99
16D#LL	4.ff# 4.fff#	pp
16Bn	.	.
16D#	.	.
16B	.	.
16D#	.	.
16BJJ	.	.
16DnLL	4.f# 4.ff#	.
16cn	.	.
16D	.	.
16c	.	.
16D	.	.
16cJJ	.	.
!!LO:LB:g=original
=100	=100	=100
16CnLL	4.f# 4.ddn 4.ff#	.
16An	.	.
16C	.	.
16A	.	.
16C	.	.
16AJJ	.	.
16BBnLL	4gn 4dd 4ggn	.
16Gn	.	.
16BB	.	.
16G	.	.
16AAn	8an 8dd 8aan	.
16F#JJ	.	.
=101	=101	=101
8GG\ 8G\	4bn 4dd 4bbn	<
*ped	*	*
16G 16BnLL	.	.
16d	.	.
16G 16B	8een (8eeen	.
16dJJ	.	.
16G 16BLL	4dd 4ddd	.
16d	.	.
16G 16B	.	.
16d	.	.
16G 16B	8b 8bb	.
*Xped	*	*
16dJJ	.	[[
=102	=102	=102
*ped	*	*
16F# 16cLL	4an 4aan	>
16d	.	.
16F# 16c	.	.
16d	.	.
16F# 16c	8een 8eeen	.
16dJJ	.	.
16F# 16cLL	4dd 4ddd	.
16d	.	.
16F# 16c	.	.
16d	.	.
16F# 16c	8a 8aa)	.
*Xped	*	*
16dJJ	.	]
!!LO:LB:g=original
=103	=103	=103
*^	*^	*
(4Bn	2.G	4.bbn	16ddLL	<
.	.	.	16een	.
.	.	.	16dd	.
.	.	.	16ee	.
8en	.	.	16dd	.
.	.	.	16eeJJ	.
4d	.	4.gg	16ddLL	.
.	.	.	16ee	.
.	.	.	16dd	.
.	.	.	16ee	.
8B)	.	.	16dd	.
.	.	.	16eeJJ	[
=104	=104	=104	=104	=104
(4An	2.D	4.ff#	16ddLL	.
.	.	.	16een	.
.	.	.	16dd	.
.	.	.	16ee	.
8en	.	.	16dd	.
.	.	.	16eeJJ	.
4d	.	4.ccc	16ddLL	.
.	.	.	16ee	.
.	.	.	16dd	.
.	.	.	16ee	.
8A)	.	.	16dd	.
.	.	.	16eeJJ	.
*v	*v	*	*	*
=105	=105	=105	=105
4G 4Bn 4d	8bbn	8ddL	p
.	8raa	8bnJ	.
8r	8ddd	8g	.
4r	(8dddL	8f#L	.
.	8bb	8g	.
8d	8ggJ)	8bJ	.
=106	=106	=106	=106
(8dL	4.ryy	8r	.
8Bn	.	(8bnL	.
8GJ	.	8ddJ)	.
8FnL	4ryy	(8ggL	.
8D	.	8bbnJ)	.
8BBnJ)	(8ddd	8gg	.
!!LO:LB:g=original
=107	=107	=107	=107
*^	*	*	*
4C	4.ryy	4eeen)	(8ggL	.
.	.	.	8een	.
*clefG2	*clefG2	*	*	*
8g	.	8raa	8ccJ	.
(8gL	4ryy	4.ryy	8bnL	.
8en)	.	.	8cc	.
*clefF4	*clefF4	*	*	*
8cJ	8G	.	8eeJ)	.
*v	*v	*	*	*
*	*v	*v	*
=108	=108	=108
(8GL	8r	.
8En	(8ggL	.
8CJ)	8cccJ)	.
(8GGL	4een (4eeen	.
8CCJ)	.	.
8C	8ee- 8eee-)	.
=109	=109	=109
16CLL	(8eee-L	<
16E-X	.	.
16A-X	8ccc	.
16E-	.	.
16A-	8aa-J	.
16E-JJ	.	.
16D-LL	8ggL	.
16E-	.	.
16G	8bb-	.
16B-	.	.
16d-	8ee- 8eee-J)	.
16GJJ	.	.
=110	=110	=110
16A-LL	(8ee-L	.
16c	.	.
16e-	8cc	.
16c	.	.
16e-	8a-J)	.
16cJJ	.	.
16GLL	(8ee-L	.
16B-	.	.
16e-	8b-)	.
16B-	.	.
16G	8b-' 8bb-'J	.
16B-JJ	.	.
!!LO:LB:g=original
=111	=111	=111
16E-LL	8b- (8bb-L	p
16G	.	.
16B-	8g 8gg	.
16G	.	.
16B-	8e- 8ee-J	.
16GJJ	.	.
16BB-LL	8d 8ddL	.
16A-	.	.
16B-	8f 8ff)	.
16A-	.	.
16B-	8b-' 8bb-'J	.
16A-JJ	.	.
=112	=112	=112
16E-LL	8b- (8bb-L	.
16G	.	.
16B-	8g 8gg	.
16G	.	.
16B-	8e- 8ee-J	.
16GJJ	.	.
16B-LL	8e- 8ee-L	.
16G	.	.
16B-	8g 8gg)	.
16G	.	.
16En	8cc' 8ccc'J	.
16GJJ	.	.
=113	=113	=113
16FLL	8cc (8cccL	<
16A-	.	.
16c	8a- 8aa-	.
16A-	.	.
16c	8f 8ffJ	.
16A-JJ	.	.
16CLL	8en 8eenL	.
16B-	.	.
16c	8g 8gg)	.
16B-	.	.
16c	8cc' 8ccc'J	.
16B-JJ	.	[[
=114	=114	=114
16FLL	8cc (8cccL	>
16A-	.	.
16c	8a- 8aa-	.
16A-	.	.
16c	8f 8ffJ	.
16A-JJ	.	.
16B-LL	8d 8ddL	.
16A-	.	.
16B-	8f 8ff)	.
16A-	.	.
16D	8b-' 8bb-'J	.
16A-JJ	.	]
!!LO:LB:g=original
=115	=115	=115
16E-LL	8b- (8bb-L	.
16G	.	.
16B-	8g 8gg	.
16G	.	.
16B-	8e-X 8ee-XJ	.
16GJJ	.	.
16AA-LL	8c 8ccL	.
16F	.	.
16A-	8f 8ff)	.
16F	.	.
16A-	8a-' 8aa-'J	.
16FJJ	.	.
=116	=116	=116
16BB-LL	(8B- 8b-L	.
16E-	.	.
16G	8e-) 8ee-	.
16E-	.	.
16G	8g' 8gg'J	.
16E-JJ	.	.
16BB-LL	(8B- 8b-L	.
16D	.	.
16F	8d) 8ddJ	.
16DJJ	.	.
8BB- 8B-	16a-LL	.
.	16ffJJ	.
=117	=117	=117
8BB-' 8B-'L	16r	<
*	*8va	*
.	(16ggLL	.
8GG' 8G'	16bb-	.
.	16eee-	.
8EE-' 8E-'J	16ggg	.
.	16ggJJ)	.
8DD' 8D'L	16r	.
.	(16aa-LL	.
8FF' 8F'	16bb-	.
.	16fff	.
8BB-' 8B-'J	16aaa-	.
.	16aa-JJ)	.
=118	=118	=118
8BB- 8B-L	16r	.
.	16ggLL	.
8GG 8G	16bb-	.
.	16eee-	.
8EE- 8E-J	16ggg	.
.	16ggJJ	.
8EE- 8E-L	16r	.
.	16ggLL	.
8GG 8G	16bb-	.
.	16eee-	.
8C 8cJ	16ggg	.
.	16eeenJJ	.
!!LO:LB:g=original
=119	=119	=119
8C 8cL>	16r	.
.	16aa-LL	.
8AA- 8A-	16ccc	.
.	16fff	.
8FF 8FJ	16aaa-	.
.	16aa-JJ	.
8EEn 8EnL	16r	.
.	16bb-LL	.
8GG 8G	16ccc	.
.	16ggg	.
8C 8cJ	16bbb-	.
.	16bb-JJ	.
=120	=120	=120
8C 8cL>	16r	.
.	16aa-LL	.
8AA- 8A-	16ccc	.
.	16fff	.
8FF 8FJ	16aaa-	.
.	16aa-JJ	.
8DD 8DL	16r	.
.	16aa-LL	.
8FF 8F	16bb-	.
.	16fff	.
8BB- 8B-J	16aaa-	.
.	16aa-JJ	.
=121	=121	=121
8BB- 8B-L	16r	.
.	16ggLL	.
8GG 8G	16bb-	.
.	16eee-	.
8EE-X 8E-XJ	16ggg	.
.	16ggJJ	.
8CC 8CL	16r	.
.	16aaa-LL	.
8FF 8F	16fff	.
.	16ccc	.
8AA- 8A-J	16aa-	.
.	16aaa-JJ	.
=122	=122	=122
8BBB- 8BB-L	16r	.
.	16bbb-LL	.
8EE- 8E-	16ggg	.
.	16eee-	.
8GG 8GJ	16bb-	.
.	16bbb-JJ	.
8BBB- 8BB-L	16r	.
.	16bbb-LL	.
8FF 8F	16fff	.
.	16ddd	.
8BB- 8B-J	16bb-	.
.	16bbb-JJ	.
*	*X8va	*
!!LO:LB:g=original
=123	=123	=123
*ped	*	*
8EE-	16GLL	ff
.	16e-	.
8E- 8GL	16B-	.
.	16g	.
8E- 8G 8B-J	16e-	.
.	16b-JJ	.
8E- 8G 8B- 8e-L	16gLL	.
.	16ee-	.
8E- 8G 8B- 8e-	16b-	.
.	16gg	.
8E- 8G 8B- 8e-J	16ee-	.
.	16bb-JJ	.
=124	=124	=124
*	*8va	*
8E- 8G 8B- 8e-L	16ggLL	.
.	16eee-	.
8E- 8G 8B- 8e-	16bb-	.
.	16ggg	.
*Xped	*	*
8E- 8G 8B- 8e-J	16eee-	.
.	16bbb-JJ	.
8E- 8F 8A- 8B- 8dL	16aaanLL	.
.	16bbb-	.
8E- 8F 8A- 8B- 8d	16aaa	.
.	16bbb-	.
8E- 8F 8A- 8B- 8dJ	16aaa	.
.	16bbb-JJ	.
=125	=125	=125
8E- 8G 8B- 8e-L	16ccccLL	.
.	16bbb-	.
8E- 8G 8B- 8e-	16aaa-X	.
.	16ggg	.
8E- 8G 8B- 8e-J	16fff	.
.	16eee-JJ	.
*	*X8va	*
8E- 8G 8B- 8e-L	16dddLL	.
.	16ccc	.
8E- 8G 8B- 8e-	16bb-	.
.	16aa-	.
8E- 8G 8B- 8e-J	16gg	.
.	16ffJJ	.
=126	=126	=126
8E- 8G 8B- 8e-L	16ee-LL	.
.	16dd	.
8E- 8G 8B- 8e-	16cc	.
.	16b-	.
8E- 8G 8B- 8e-J	16a-	.
.	16gJJ	.
8E- 8F 8A- 8B-L	16fLL	.
.	16e-	.
8E- 8F 8A- 8B-	16d	.
.	16f	.
8E- 8F 8A- 8B-J	16a-	.
.	16dJJ	.
!!LO:LB:g=original
=127	=127	=127
*ped	*	*
8EE-	16GLL	ff
.	16e-	.
8E- 8GL	16B-	.
.	16g	.
8E- 8G 8B-J	16e-	.
.	16b-JJ	.
8E- 8G 8B- 8e-L	16gLL	.
.	16ee-	.
8E- 8G 8B- 8e-	16b-	.
.	16gg	.
8E- 8G 8B- 8e-J	16ee-	.
.	16bb-JJ	.
=128	=128	=128
*	*8va	*
8E- 8G 8B- 8e-L	16ggLL	.
.	16eee-	.
8E- 8G 8B- 8e-	16bb-	.
.	16ggg	.
8E- 8G 8B- 8e-J	16eee-	.
*Xped	*	*
.	16bbb-JJ	.
8E- 8G 8B- 8d-L	16aaanLL	.
.	16bbb-	.
8E- 8G 8B- 8d-	16aaa	.
.	16bbb-	.
8E- 8G 8B- 8d-J	16aaa	.
.	16bbb-JJ	.
=129	=129	=129
8E- 8G 8B- 8d-L	16ccccLL	.
.	16bbb-	.
8E- 8G 8B- 8d-	16aaa-X	.
.	16ggg	.
8E- 8G 8B- 8d-J	16fff	.
.	16eee-JJ	.
*	*X8va	*
8E- 8G 8B- 8d-L	16ddd-LL	.
.	16ccc	.
8E- 8G 8B- 8d-	16bb-	.
.	16aa-	.
8E- 8G 8B- 8d-J	16gg	.
.	16ffJJ	.
=130	=130	=130
8E- 8G 8B- 8d-L	16ee-LL	.
.	16dd-	.
8E- 8G 8B- 8d-	16cc	.
.	16b-	.
8E- 8A- 8cJ	16a-	.
.	16gJJ	.
8E- 8F 8A- 8c-L	16fLL	.
.	16e-	.
8E- 8F 8A- 8c-	16dn	.
.	16f	.
8E- 8F 8A- 8B-J	16a-	.
.	16dJJ	.
!!LO:LB:g=original
=131	=131	=131
*ped	*	*
4EE-' 4E-'	4e-'	ff
8r	8r	.
*clefG2	*	*
4e-'	4ee-'	sf
8r	8r	.
=132	=132	=132
4g-'	4gg-'	sf
8r	8r	.
4cc-'	4ccc-'	sf
8r	8r	.
=133	=133	=133
4g-'	4gg-'	sf
8r	8r	.
4e-'	4ee-'	sf
8r	8r	.
*clefF4	*	*
=134	=134	=134
4c-'	4cc-'	sf
8r	8r	.
4G-'	4g-'	sf
*Xped	*	*
8r	8r	.
=135	=135	=135
*ped	*	*
4DDn' 4Dn'	4dn'	ff
8r	8r	.
*clefG2	*	*
4d'	4dd'	.
8r	8r	.
=136	=136	=136
4f'	4ff'	.
8r	8r	.
4b-'	4bb-'	.
8r	8r	.
=137	=137	=137
4f'	4ff'	.
8r	8r	.
4d'	4dd'	.
8r	8r	.
*clefF4	*	*
=138	=138	=138
4B-'	4b-'	.
8r	8r	.
4F'	4f'	.
*Xped	*	*
8r	8r	.
*clefG2	*	*
!!LO:LB:g=original
=139	=139	=139
8e- 8g- 8cc-L	8gg-	p
8e- 8g- 8cc-	8r	.
*	*8va	*
.	(8fff-q	.
*ped	*	*
8e- 8g- 8cc-J	()16eee-LL	.
.	16dddJJ	.
8e- 8g- 8cc-L	8eee-)	.
8e- 8g- 8cc-	8r	.
.	(8aaa-q	.
8e- 8g- 8cc-J	(16ggg-XLL)	.
.	16fffnJJ	.
=140	=140	=140
8e- 8g- 8cc-L	8ggg-)	.
8e- 8g- 8cc-	8r	.
.	(8dddd-q	.
8e- 8g- 8cc-J	(16cccc-LL)	.
.	16bbb-JJ	.
8e- 8g- 8cc-L	8cccc-)	.
8e- 8g- 8cc-	8r	.
.	(8aaa-q	.
8e- 8g- 8cc-J	()16ggg-LL	.
.	16fffJJ	.
=141	=141	=141
8e- 8g- 8cc-L	8ggg-)	.
8e- 8g- 8cc-	8r	.
.	(8fff-q	.
8e- 8g- 8cc-J	()16eee-LL	.
.	16dddJJ	.
8e- 8g- 8cc-L	8eee-)	.
8e- 8g- 8cc-	8r	.
.	(8ddd-q	.
8e- 8g- 8cc-J	(16ccc-LL)	.
.	16bb-JJ	.
=142	=142	=142
8e- 8g- 8cc-L	8ccc-)	.
8e- 8g- 8cc-	8r	.
.	(8aa-q	.
8e- 8g- 8cc-J	16gg-LL)	.
.	16ffJJ	.
8e- 8g- 8cc-L	4gg-	.
8e- 8g- 8cc-	.	.
*Xped	*	*
8e- 8g- 8anJ	8r	.
!!LO:LB:g=original
=143	=143	=143
*ped	*	*
8d 8f 8b-L	8ff	.
8d 8f 8b-	8r	.
.	(8eee-q	.
8d 8f 8b-J	(16dddnLL)	.
.	16cccnJJ	.
8d 8f 8b-L	8ddd)	.
8d 8f 8b-	8r	.
.	(8ggg-q	.
8d 8f 8b-J	(16fffLL)	.
.	16eeenJJ	.
=144	=144	=144
8d 8f 8b-L	8fff)	.
8d 8f 8b-	8r	.
.	8ccccq	.
8d 8f 8b-J	(16bbb-LL	.
.	16aaanJJ	.
8d 8f 8b-L	8bbb-)	.
8d 8f 8b-	8r	.
.	8ggg-q	.
8d 8f 8b-J	(16fffLL	.
.	16eeenJJ	.
=145	=145	=145
8d 8f 8b-L	8fff)	.
8d 8f 8b-	8r	.
.	(8eee-q	.
8d 8f 8b-J	(16dddLL)	.
.	16cccJJ	.
8d 8f 8b-L	8ddd)	.
8d 8f 8b-	8r	.
.	(8ccc-q	.
8d 8f 8b-J	(16bb-LL<)	.
.	16aanJJ	.
*	*X8va	*
=146	=146	=146
8d 8f 8b-L	8bb-)	.
8f 8b-	8r	.
.	(8gg-q	.
8d 8f 8b-J	(16ffLL)	.
.	16eenJJ	.
8d 8f 8b-	8ff)	.
*Xped	*	*
*clefF4	*	*
(8B-L	8r	.
8A-J)	8ff#	.
!!LO:LB:g=original
=147	=147	=147
*^	*^	*
(4G	2.E-	4.ggn	16b-LL	<
.	.	.	16cc	.
.	.	.	16b-	.
.	.	.	16cc	.
8c	.	.	16b-	.
.	.	.	16ccJJ	.
4B-	.	4.ee-	16b-LL	.
.	.	.	16cc	.
.	.	.	16b-	.
.	.	.	16cc	.
8G)	.	.	16b-	.
.	.	.	16ccJJ	.
=148	=148	=148	=148	=148
(4F	2.BB-	4.dd	16b-LL	.
.	.	.	16cc	.
.	.	.	16b-	.
.	.	.	16cc	.
8c	.	.	16b-	.
.	.	.	16ccJJ	.
4B-	.	4.aa-	16b-LL	.
.	.	.	16cc	.
.	.	.	16b-	.
.	.	.	16cc	.
8F)	.	.	16b-	.
.	.	.	16ccJJ	.
=149	=149	=149	=149	=149
(4G	2.E-	4.gg	16b-LL	.
.	.	.	16cc	.
.	.	.	16b-	.
.	.	.	16cc	.
8c	.	.	16b-	.
.	.	.	16ccJJ	.
4B-	.	4.ee-	16b-LL	.
.	.	.	16cc	.
.	.	.	16b-	.
.	.	.	16cc	.
8G)	.	.	16b-	.
.	.	.	16ccJJ	.
!!LO:LB:g=original
=150	=150	=150	=150	=150
(4F	2.BB-	4.dd	16b-LL	.
.	.	.	16cc	.
.	.	.	16b-	.
.	.	.	16cc	.
8c	.	.	16b-	.
.	.	.	16ccJJ	.
4B-	.	4.aa-	16b-LL	.
.	.	.	16cc	.
.	.	.	16b-	.
.	.	.	16cc	.
8F)	.	.	16b-	.
.	.	.	16ccJJ	.
*v	*v	*	*	*
*	*v	*v	*
=151	=151	=151
8E- 8B-	16b- 16ggLL	p
.	16cc	.
8G 8B- 8e-L	16dd	.
.	16ee-JJ	.
8G 8B- 8e-J	24ffLL	.
.	24gg	.
.	24aa-JJ	.
8G 8B- 8e-L	16bb-LL	.
.	16aa-JJ	.
8G 8B- 8e-	24ggLL	.
.	24ff	.
.	24ee-JJ	.
8G 8Bn 8e-J	24ddLL	.
.	24cc	.
.	24bnJJ	.
=152	=152	=152
8r	16ccLL	.
.	16ee-	.
8A- 8c 8e-L	16ff	.
.	16gg	.
8A- 8c 8e-J	16aa-	.
.	16bb-JJ	.
8A- 8c 8e-L	16cccLL	.
.	16bb-JJ	.
8A- 8c 8e-J	24aa-LL	.
.	24gg	.
.	24ffJJ	.
*clefG2	*	*
8An 8e- 8f	24ee-LL	.
.	24dd	.
.	24ccJJ	.
!!LO:LB:g=original
=153	=153	=153
8r	16b-LL	<
.	16gg	.
8B- 8e- 8gL	16ee-	.
.	16bb-	.
8B- 8e- 8gJ	16gg	.
.	16eee-JJ	[[
*	*8va	*
8B- 8e- 8gL	16bb-LL	>
.	16ggg	.
8B- 8e- 8g	16eee-	.
.	16bbb-	.
8B- 8e- 8gJ	16ggg	.
.	16eee-JJ	]]
*	*X8va	*
=154	=154	=154
8B- 8e- 8gL	4bb-	.
8B- 8e- 8g	.	.
8B- 8e- 8gJ	8r	.
8B- 8d 8a-L	4.fffT	.
8B- 8d 8a-	.	.
8B- 8d 8a-J	.	.
=155	=155	=155
*	*8va	*
*^	*^	*
(4g	2.e-	4.ggg	16bb-LL	<
.	.	.	16ccc	.
.	.	.	16bb-	.
.	.	.	16ccc	.
8cc	.	.	16bb-	.
.	.	.	16cccJJ	.
4b-	.	4.eee-	16bb-LL	.
.	.	.	16ccc	.
.	.	.	16bb-	.
.	.	.	16ccc	.
8g)	.	.	16bb-	.
.	.	.	16cccJJ	.
=156	=156	=156	=156	=156
(4f	2.B-	4.ddd	16bb-LL	.
.	.	.	16ccc	.
.	.	.	16bb-	.
.	.	.	16ccc	.
8cc	.	.	16bb-	.
.	.	.	16cccJJ	.
4b-	.	4.aaa-	16bb-LL	.
.	.	.	16ccc	.
.	.	.	16bb-	.
.	.	.	16ccc	.
8f)	.	.	16bb-	.
.	.	.	16cccJJ	.
!!LO:LB:g=original
=157	=157	=157	=157	=157
(4g	2.e-	4.ggg	16bb-LL	.
.	.	.	16ccc	.
.	.	.	16bb-	.
.	.	.	16ccc	.
8cc	.	.	16bb-	.
.	.	.	16cccJJ	.
4b-	.	4.eee-	16bb-LL	.
.	.	.	16ccc	.
.	.	.	16bb-	.
.	.	.	16ccc	.
8g)	.	.	16bb-	.
.	.	.	16cccJJ	.
=158	=158	=158	=158	=158
(4f	2.B-	4.ddd	16bb-LL	.
.	.	.	16ccc	.
.	.	.	16bb-	.
.	.	.	16ccc	.
8cc	.	.	16bb-	.
.	.	.	16cccJJ	.
4b-	.	4.aaa-	16bb-LL	.
.	.	.	16ccc	.
.	.	.	16bb-	.
.	.	.	16ccc	.
8f)	.	.	16bb-	.
.	.	.	16cccJJ	.
*v	*v	*	*	*
*	*v	*v	*
=159	=159	=159
16e-LL	8r	.
16g	.	.
16a-	8eee- 8gggL	p
16b-	.	.
16cc	8eee- 8gggJ	.
16ddJJ	.	.
16ee-LL	8eee- 8gggL	.
16dd	.	.
16cc	8eee- 8ggg	.
16b-	.	.
16a-	8eee- 8gggJ	.
16gJJ	.	.
=160	=160	=160
16a-LL	8r	.
16cc	.	.
16dd	8eee- 8fffL	.
16ee-	.	.
16ff	8eee- 8fffJ	.
16ggJJ	.	.
16aa-LL	8eee- 8fffL	.
16gg	.	.
16ff	8eee- 8fff	.
16ee-	.	.
16dd	8eee- 8fffJ	.
16ccJJ	.	.
!!LO:LB:g=original
=161	=161	=161
*ped	*	*
16b-LL	8r	.
16B-	.	.
16e-	8eee- 8gggL	.
16g	.	.
16b-	8eee- 8gggJ	.
16ee-JJ	.	.
16ggLL	8eee- 8gggL	.
16ee-	.	.
16bb-	8eee- 8ggg	.
16gg	.	.
16ee-	8eee- 8gggJ	.
*Xped	*	*
16b-JJ	.	.
=162	=162	=162
*^	*	*
*ped	*	*	*
2.ffT	4b-	8ddd 8fffL	.
.	.	8ddd 8fff	.
.	8r	8ddd 8fffJ	.
.	4r	8ddd 8fffL	.
.	.	8ddd 8fff	.
*Xped	*	*	*
.	8r	8ddd 8fffJ	.
*v	*v	*	*
=163	=163	=163
16b-LL	4r	.
16een	.	.
16ff	.	.
16gg	.	.
16ff	[8ddd- [8dddd-	<
16eeJJ	.	.
16a-LL	4ddd-] (4dddd-]	.
16ff	.	.
16gg	.	.
16aa-	.	.
16gg	8ccc 8cccc)	.
*	*X8va	*
16ffJJ	.	.
*clefF4	*	*
=164	=164	=164
16A-LL	4r	.
16dn	.	.
16e-X	.	.
16f	.	.
16e-	[8cc- [8ccc-	.
16dJJ	.	.
16GLL	4cc-] (4ccc-]	.
16e-	.	.
16f	.	.
16g	.	.
16f	8b- 8bb-)	.
16e-JJ	.	.
!!LO:LB:g=original
=165	=165	=165
16BB-LL	4r	.
16En	.	.
16F	.	.
16G	.	.
16F	[8d- [8dd-	.
16EJJ	.	.
16AA-LL	((4d-] 4dd-]	.
16F	.	.
16G	.	.
16A-	.	.
16G	8cn 8ccn))	.
16FJJ	.	.
=166	=166	=166
16AAA-LL	4r	.
16DD	.	.
16EE-X	.	.
16FF	.	.
*	*clefF4	*
16EE-	[8C- [8c-	.
16DDJJ	.	.
16GGGLL	4C-] (4c-]	.
16EE-	.	.
16FF	.	.
16GG	.	.
16FF	8BB- 8B-)	.
16EE-JJ	.	.
*	*clefG2	*
=167	=167	=167
16GGGLL	8r	.
16BBB-	.	.
16EE-	8B-' 8b-'L	.
16GG	.	.
16EE-	8B-' 8b-'J	.
16BBB-JJ	.	.
16CCLL	8r	.
16EE-	.	.
16GG	8A-' 8a-'L	.
16C	.	.
16GG	8G' 8g'J	.
16EE-JJ	.	.
=168	=168	=168
16AAA-LL	8r	.
16CC	.	.
16FF	8G' 8g'L	.
16AA-	.	.
16FF	8F' 8f'J	.
16CCJJ	.	.
16BBB-LL	8r	.
16FF	.	.
16AA-	8E-' 8e-'L	.
16BB-	.	.
16AA-	8D' 8d'J	.
16FFJJ	.	.
!!LO:LB:g=original
=169	=169	=169
16GGLL<	8r	.
16BB-	.	.
16E-	8b- 8bb-L	.
16G	.	.
16E-	8b- 8bb-J	.
16BB-JJ	.	.
16CLL	8r	.
16E-	.	.
16G	8a- 8aa-L	.
16c	.	.
16G	8g 8ggJ	.
16E-JJ	.	.
=170	=170	=170
16AA-LL	8r	.
16C	.	.
16F	8g 8ggL	.
16A-	.	.
16F	8f 8ffJ	.
16CJJ	.	.
16BBB-LL	8r	.
16FF	.	.
16AA-	8e- 4ee-L	.
16BB-	.	.
16AA-	8d 8ddJ	.
16FFJJ	.	.
=171	=171	=171
16GGGLL	8r	.
16BBB-	.	.
16EE-	8e- 8g 8ee-L	.
16GG	.	.
16EE-	8e- 8g 8b-J	.
16BBB-JJ	.	.
16CCLL	8r	.
16EE-	.	.
16GG	8c 8e- 8a-L	.
16C	.	.
16GG	8c 8e- 8gJ	.
16EE-JJ	.	.
=172	=172	=172
16AAA-LL	8r	.
16CC	.	.
16FF	8A- 8c 8gL	.
16AA-	.	.
16FF	8A- 8c 8fJ	.
16CCJJ	.	.
*	*clefF4	*
16BBB-LL	8r	.
16FF	.	.
16AA-	8F 8A- 8e-L	.
16BB-	.	.
16BBB-	8F 8A- 8dJ	.
16BB-JJ	.	.
!!LO:LB:g=original
=173	=173	=173
8EE-	16E-LL	f
.	16F	.
8E-L	16G	.
.	16A-JJ	.
8E- 8GJ	24B-LL	.
.	24c	.
.	24dJJ	.
*	*clefG2	*
4E- 4G 4B-	24e-LL	sf
.	24f	.
.	24gJJ	.
.	24a-LL>	.
.	24b-	.
.	24ccJJ	.
8BB- 8F 8B-	16ddLL	.
.	16dJJ	.
=174	=174	=174
8E- 8G 8B-L	16e-LL	.
.	16f	.
8E- 8G 8B-	16g	.
.	16a-JJ	.
8E- 8G 8B-J	24b-LL	.
.	24cc	.
.	24ddJJ	.
4E- 4G 4B-	24ee-LL	sf
.	24ff	.
.	24ggJJ	.
.	24aa-LL	.
.	24bb-	.
.	24cccJJ	.
8BB- 8F 8B-	16dddLL	.
.	16ddJJ	.
=175	=175	=175
8E- 8G 8B-L	16ee-LL	.
.	16ff	.
8E- 8G 8B-	16gg	.
.	16aa-JJ	.
8E- 8G 8B-J	24bb-LL	.
.	24ccc	.
.	24dddJJ	.
4E- 4G 4B-	16eee-LL	sf
*	*8va	*
.	16fff	.
.	16ggg	.
.	16aaa-JJ	.
8BB- 8F 8B-	24bbb-LL	.
.	24cccc	.
.	24ddddJJ	.
!!LO:LB:g=original
=176	=176	=176
*ped	*	*
4E- 4G 4B-	4eeee-	.
*	*X8va	*
8r	8r	.
4EE- 4E-	4g 4b- 4ee-	.
8r	8r	.
=177	=177	=177
4EE- 4E-	4G 4B- 4e-	.
8r	8r	.
!!LO:TX:a:B:t=Poco andante
4r	4b-	p
*Xped	*	*
8r	8b-	.
=178	=178	=178
4E-' 4G' 4B-'	(8b-L	.
.	8g	.
8r	8e-J	.
4BB-' 4F' 4A-' 4B-'	8dL	.
.	8f	.
8r	8b-J)	.
=179	=179	=179
4E-' 4G' 4B-'	(8b-L	.
.	8g	.
8r	8e-J	.
8C' 8G' 8c'	8enL	.
8r	8g	.
8En' 8G' 8B-' 8c'	8ccJ)	.
=180	=180	=180
4F' 4A-' 4c'	(8ccL	.
.	8a-	.
8r	8fJ	.
8D' 8An' 8d'	8f#L	.
8r	8an	.
8F#' 8A' 8d'	8ddJ)	.
!!LO:LB:g=original
=181	=181	=181
4G' 4B-' 4d'	(8ddL	.
.	8b-	.
8r	8gJ	.
4Fn' 4A-X' 4B-' 4d'	8a-XL	.
.	8b-	.
8r	8ddJ)	.
=182	=182	=182
*ped	*	*
4E- 4G 4B- 4e-	(8ee-L	.
.	8b-	.
!	!LO:TX:b:i:t=espress.	!
8r	8gJ	.
4r	8gL	.
.	8b-	.
8r	8ee-J)	.
=183	=183	=183
((8e-L	(8ggL	.
8B-	8ee-	.
8GJ))	8b-J)	.
(8GL	(8b-L	.
8B-	8ee-	.
8e-J)	8ggJ	.
=184	=184	=184
(8EE- 8GGL	8gg 8bb-L	<
8GG 8BB-	8ee- 8gg	.
8BB- 8E-J	8b- 8ee-J	.
8GG 8BB-L	8ee- 8ggL	.
8BB- 8E-	8b- 8ee-	.
8E-) 8GJ	8g 8b-J)	[
=185	=185	=185
*	*^	*
(8BB- 8E-L	8b- (8ee-L	4.ryy	>
8E- 8G	8g 8b-	.	.
8G 8B-J)	8e- 8gJ	.	.
*Xped	*	*	*
8r	8b-L	8r	.
*	*v	*v	*
8BB- (8FL	8c 8a-	]]
8BB- 8B-J)	8d 8fJ)	.
!!LO:LB:g=original
=186	=186	=186
4E- 4G 4B-	16g (16ee-LL	.
.	16dd	.
.	16ee-	.
.	16b-J)	.
8r	8g'J	.
.	(8a-q	.
4r	(16gLL<)	.
.	16f#	.
.	16g	.
.	16b-J)	.
8r	8ee-'J	.
=187	=187	=187
*^	*^	*
(<16e-LL	4.E-	(<16ggLL	4.g	.
16d	.	16ff#	.	.
16e-	.	16gg	.	.
16B-J)	.	16ee-J)	.	.
8G'<J	.	8b-'<J	.	.
.	(8A-q	.	(8ccq	.
4.ryy	()16GLL	4.ryy	(16b-LL)	.
.	16F#	.	16an	.
.	16G	.	16b-	.
.	16B-J)	.	16ee-J)	.
.	8e-'J	.	8gg'J	.
*v	*v	*	*	*
*	*v	*v	*
=188	=188	=188
(16EE-LL	16gg (16bb-LL	<
16DD	16aa- 16ccc	.
16EE-	16ccc	.
16GGJ	16ee- 16ggJ	.
8BB-J	8b- 8ee-J	.
16GGLL	16ee- 16ggLL	.
16FF	16ff 16aa-	.
16GG	16ee- 16gg	.
16BB-J	16b- 16ee-J	.
8E-J	8g 8b-J	[[
=189	=189	=189
16BB-LL	16g 16ee-LL	>
16AAn	16ff	.
16BB-	16g 16ee-	.
16E-J	16g 16b-J	.
8GJ)	8e- 8gJ	.
8r	8b-L	.
8BB- 8FL	8c 8a-X	.
8BB- 8B-J	8d 8fJ)	]]
!!LO:LB:g=original
=190	=190	=190
8EE- 8GGL	16r	.
.	16gg 16bb-LK	<
8GG 8BB-	8ee- 8gg	.
8BB- 8E-J	[8b- [8ee-J	.
8GG 8BB-L	16b-] 16ee-LK]	[[
.	8ee- 8gg	.
8BB- 8E-	.	.
.	8b- 8ee-	.
8E- 8GJ	.	.
.	[16g [16b-Jk	.
=191	=191	=191
!!LO:TX:a:B:t=Poco ritard.
8BB- 8E-L	16g] 16b-LK]	pp
.	8b- 8ee-	.
8E- 8G	.	.
.	8g 8b-	.
8BB- 8E- 8B-J	.	.
.	[16gJk	.
8BB- 8F 8B-L	16gLK]	.
.	8b-	.
8BB- 8F 8B-	.	.
.	8d 8a-	.
8BB-; 8A-; 8B-;J	.	.
.	16d; 16f;<Jk	.
*clefG2	*	*
=192	=192	=192
*ped	*	*
!!LO:TX:a:B:t=Tempo 1o
8b-L	16bb-LL	f
.	16bbb-	.
8g	16gg	.
.	16ggg	.
8e-J	16ee-	.
.	16eee-JJ	.
8gL	16ggLL	.
.	16ggg	.
8e-	16ee-	.
.	16eee-	.
8B-J	16b-	.
.	16bb-JJ	.
*clefF4	*	*
=193	=193	=193
8e-L	16ee-LL	.
.	16eee-	.
8B-	16b-	.
.	16bb-	.
8GJ	16g	.
*Xped	*	*
.	16ggJJ	.
*ped	*	*
8B-L	16b-LL	.
.	16bb-	.
8A-	16a-	.
.	16aa-	.
8BB- 8FJ	16f	.
*Xped	*	*
.	16ffJJ	.
!!LO:LB:g=original
=194	=194	=194
*ped	*	*
8EE- 8E-	16e-LL	.
.	16ee-	.
8E- 8G 8B- 8e-L	16g	.
.	16gg	.
8E- 8G 8B- 8e-J	16g	.
.	16ggJJ	.
8E- 8G 8B- 8e-L	16gLL	.
.	16gg	.
8E- 8G 8B- 8e-	16b-	.
.	16bb-	.
8E- 8G 8B- 8e-J	16b-	.
.	16bb-JJ	.
=195	=195	=195
8E- 8G 8B- 8e-L	16b-LL	.
.	16bb-	.
8E- 8G 8B- 8e-	16ee-	.
.	16eee-	.
8E- 8G 8B- 8e-J	16ee-	.
.	16eee-JJ	.
8E- 8G 8B- 8e-L	16ee-LL	.
.	16eee-	.
8E- 8G 8B- 8e-	16gg	.
.	16ggg	.
8E- 8G 8B- 8e-J	16bb-	.
.	16bbb-JJ	.
=196	=196	=196
*	*8va	*
4E- 4G 4e-	4eee- 4eeee-	.
*Xped	*	*
*	*X8va	*
8r	8r	.
4BB- 4B-	4f 4a- 4b- 4dd	.
8r	8r	.
=197	=197	=197
4EE- 4E-	4g/ 4b-/ 4ee-/	.
8r	8r	.
4r	4r	.
8r	8r	.
==	==	==
*-	*-	*-
!!!RDF**kern: > = above
!!!RDF**kern: < = below
!!!verovio: beamFrenchStyle
!!!LOR: Durand 1915, plates 9327/9328, Paul Dukas, ed.
!!!PED: Dukas, Paul
!!!URL-vhv: https://verovio.humdrum.org/?file=beethoven/sonatas/sonata26-3.krn
!!!URL-pdf: https://github.com/craigsapp/beethoven-piano-sonatas/blob/master/reference-edition/sonata26-3.pdf
!!!ENC: Craig Stuart Sapp
!!!END: 2008/07/17
!!!EED: Craig Stuart Sapp
!!!EEV: 2020/08/23
